ui/StatusQ/src/assets/img/icons/keycard-crossed.svg

<svg fill="none" height="24" viewBox="0 0 24 24" width="24" xmlns="http://www.w3.org/2000/svg"><path clip-rule="evenodd" d="m3.46967 2.21967c.29289-.29289.76777-.29289 1.06066 0l2.38388 2.38388c.09377.09377.22095.14645.35356.14645h9.73223c2.2091 0 4 1.79086 4 4v8c0 .45-.0743.8826-.2113 1.2862-.0662.1951-.0276.4142.118.5598l2.1236 2.1237c.2929.2929.2929.7677 0 1.0606s-.7677.2929-1.0606 0l-18.50003-18.49997c-.29289-.29289-.29289-.76777 0-1.06066zm15.70883 14.64813c.1205.1206.3215.0527.3215-.1178v-8c0-1.38071-1.1193-2.5-2.5-2.5h-7.23223c-.44546 0-.66854.53857-.35356.85355zm-14.1785-5.1178c0-.5523.44772-1 1-1h1c.55228 0 1 .4477 1 1v2c0 .5523-.44772 1-1 1h-1c-.55228 0-1-.4477-1-1zm-2.09046-6.41094c.23387-.14364.53156-.0873.72563.10677.3674.3674.17602 1.04397-.22481 1.37456-.55596.45853-.91036 1.15268-.91036 1.92961v8c0 1.3807 1.11929 2.5 2.5 2.5h12c.2563 0 .5139.0746.6951.2558l.0221.0221c.4267.4266.2787 1.1439-.3218 1.2028-.1301.0128-.262.0193-.3954.0193h-12c-2.20914 0-4-1.7909-4-4v-8c0-1.44291.764-2.70737 1.90954-3.41094z" fill="#000" fill-rule="evenodd"/></svg>

<svg width="24" height="24" viewBox="0 0 24 24" fill="none" xmlns="http://www.w3.org/2000/svg">
<path id="Union" fill-rule="evenodd" clip-rule="evenodd" d="M3.46967 2.21967C3.76256 1.92678 4.23744 1.92678 4.53033 2.21967L6.91421 4.60355C7.00798 4.69732 7.13516 4.75 7.26777 4.75H17C19.2091 4.75 21 6.54086 21 8.75V16.75C21 17.2 20.9257 17.6326 20.7887 18.0362C20.7225 18.2313 20.7611 18.4504 20.9067 18.596L23.0303 20.7197C23.3232 21.0126 23.3232 21.4874 23.0303 21.7803C22.7374 22.0732 22.2626 22.0732 21.9697 21.7803L3.46967 3.28033C3.17678 2.98744 3.17678 2.51256 3.46967 2.21967ZM19.1785 16.8678C19.299 16.9884 19.5 16.9205 19.5 16.75V8.75C19.5 7.36929 18.3807 6.25 17 6.25H9.76777C9.32231 6.25 9.09923 6.78857 9.41421 7.10355L19.1785 16.8678ZM5 11.75C5 11.1977 5.44772 10.75 6 10.75H7C7.55228 10.75 8 11.1977 8 11.75V13.75C8 14.3023 7.55228 14.75 7 14.75H6C5.44772 14.75 5 14.3023 5 13.75V11.75ZM2.90954 5.33906C3.14341 5.19542 3.4411 5.25176 3.63517 5.44583C4.00257 5.81323 3.81119 6.4898 3.41036 6.82039C2.8544 7.27892 2.5 7.97307 2.5 8.75V16.75C2.5 18.1307 3.61929 19.25 5 19.25H17C17.2563 19.25 17.5139 19.3246 17.6951 19.5058L17.7172 19.5279C18.1439 19.9545 17.9959 20.6718 17.3954 20.7307C17.2653 20.7435 17.1334 20.75 17 20.75H5C2.79086 20.75 1 18.9591 1 16.75V8.75C1 7.30709 1.764 6.04263 2.90954 5.33906Z" fill="black"/>
</svg>
